svgs/sharp-regular/box-tissue.svg

<svg xmlns="http://www.w3.org/2000/svg" viewBox="0 0 512 512"><!--! Font Awesome Pro 6.6.0 by @fontawesome - https://fontawesome.com License - https://fontawesome.com/license (Commercial License) Copyright 2024 Fonticons, Inc. --><path d="M64 0l49.2 0L208 0c40 0 52 24 64 48s24 48 64 48l61.4 0L448 96l-16 48-21.3 64-16 48L384 288l32 0 0 48L96 336l0-48 32 0-7.1-32-10.7-48L74.7 48 64 0zM177.2 288l156.2 0 48-144L336 144c-31.1 0-56.2-9.9-75.5-28.2c-15.8-15-25.1-33.7-30.5-44.6l-.9-1.8C222.3 56 219.8 52 217.5 49.8c-.5-.5-.8-.6-1.3-.8c-.7-.3-3-1-8.2-1l-84.2 0 53.3 240zM464 256l-35.6 0 16-48 19.6 0 48 0 0 48 0 208 0 48-48 0L48 512 0 512l0-48L0 256l0-48 48 0 29.4 0 10.7 48L48 256l0 112 416 0 0-112zM48 416l0 48 416 0 0-48L48 416z"/></svg>

<svg xmlns="http://www.w3.org/2000/svg" viewBox="0 0 512 512"><!--! Font Awesome Pro 6.4.0 by @fontawesome - https://fontawesome.com License - https://fontawesome.com/license (Commercial License) Copyright 2023 Fonticons, Inc. --><path d="M64 0h49.2H208c40 0 52 24 64 48s24 48 64 48h61.4H448l-16 48-21.3 64-16 48L384 288h32v48H96V288h32l-7.1-32-10.7-48L74.7 48 64 0zM177.2 288H333.4l48-144H336c-31.1 0-56.2-9.9-75.5-28.2c-15.8-15-25.1-33.7-30.5-44.6l-.9-1.8C222.3 56 219.8 52 217.5 49.8c-.5-.5-.8-.6-1.3-.8c-.7-.3-3-1-8.2-1H123.8l53.3 240zM464 256H428.4l16-48H464h48v48V464v48H464 48 0V464 256 208H48 77.4l10.7 48H48V368H464V256zM48 416v48H464V416H48z"/></svg>
